bootstrap/signpost-split.svg

<svg viewBox="0 0 16 16" xmlns="http://www.w3.org/2000/svg"><path d="M7 7V1.41v0c0-.56.44-1 1-1 .55 0 1 .44 1 1v.58h5v0c.31 0 .61.14.8.4l.97 1.3v0c.13.17.13.42 0 .6l-.98 1.3v0c-.19.25-.49.4-.8.4h-5v10h-2v-5h-5v0c-.32 0-.62-.15-.8-.4l-.98-1.3h0C.07 9.11.07 8.86.2 8.69l.97-1.3h0c.18-.26.48-.4.8-.4h5Zm1 3V8H2l-.75 1L2 10h6Zm0-5h6l.75-1L14 3H8v2Z"/></svg>

<svg xmlns="http://www.w3.org/2000/svg" width="16" height="16" fill="currentColor" class="bi bi-signpost-split" viewBox="0 0 16 16">
  <path d="M7 7V1.414a1 1 0 0 1 2 0V2h5a1 1 0 0 1 .8.4l.975 1.3a.5.5 0 0 1 0 .6L14.8 5.6a1 1 0 0 1-.8.4H9v10H7v-5H2a1 1 0 0 1-.8-.4L.225 9.3a.5.5 0 0 1 0-.6L1.2 7.4A1 1 0 0 1 2 7zm1 3V8H2l-.75 1L2 10zm0-5h6l.75-1L14 3H8z"/>
</svg>
